X:1
T:Allegretto Op.120, No.5
T:Ferdinando Carulli (1770-1841)
%%score { ( 1 2 ) ( 3 4 ) } { ( 5 6 ) ( 7 8 ) }
L:1/8
Q:3/8=88
M:6/8
K:A
V:1 treble-8 nm="Guitare classique"
V:2 treble-8 
V:3 tab stafflines=6 strings=E2,A2,D3,G3,B3,E4 nostems nm="Guitare classique [Tablature]"
V:4 tab stafflines=6 strings=E2,A2,D3,G3,B3,E4 nostems 
V:5 treble-8 nm="Guitare classique"
V:6 treble-8 
V:7 tab stafflines=6 strings=E2,A2,D3,G3,B3,E4 nostems nm="Guitare classique [Tablature]"
V:8 tab stafflines=6 strings=E2,A2,D3,G3,B3,E4 nostems 
V:1
"_" e | e2 c d2 f | e2 c d2 f | e2 c a2 f | e2 d c2 e | e2 c"_" f2 e | d2 B"_" e2 d | %7
 c2 A [Bd]2 [Ac] | [GB]2 B [GB]2 ::"_" e | g2 e f2 g | a2 e c2 e | [Bd]2 [Bd] [Bd]2 [Bd] | %13
 [Ac]2 [Bd] [ce]2 a | g2 e f2 g | a2 e c2 e | d2 c d2 B | A2 x x2!fine! ::"_" z | F2 A d2 A | %20
 F2 A d2 A | F2 A d2 e | [EA]2 [EA] [EA]2 x | F2 A d2 A | F2 A d2 e | f2 e d2 A | F2 A F2 :: z | %28
"_" e2 f =g2 f | e2 d e2 f | =g2 f g2 f | e2 e e2 x | F2 A d2 A | F2 A d2 e | f2 e d2 A | %35
 F2 A F2!D.C.! :| %36
V:2
 x | A,6 | A,6 | A,6 | A,6 | A,3 F3 | z3 E3 | x6 | E2 G E2 :: x | E,6 | A,6 | E,6 | A,6 | E,6 | %15
 A,6 | E,3 E,3 | A,2 z z2 :: x | x6 | x6 | x6 | C2 C C2 z | x6 | x6 | x6 | x5 :: x | A2 d e2 d | %29
 A2 F A2 d | e2 d e2 d | A2 A A2 z | x6 | x6 | x6 | x5 :| %36
V:3
 !1!E | !1!E2 !2!C !2!D2 !1!F | !1!E2 !2!C !2!D2 !1!F | !1!E2 !2!C !1!A2 !1!F | %4
 !1!E2 !2!D !2!C2 !1!E | !1!E2 !2!C !1!F2 !1!E | !2!D2 !2!B, !1!E2 !2!D | %7
 !2!C2 !3!A, [!3!B,!2!D]2 [!3!A,!2!C] | [!3!G,!2!B,]2 !2!B, [!3!G,!2!B,]2 :: !1!E | %10
 !1!G2 !1!E !1!F2 !1!G | !1!A2 !1!E !2!C2 !1!E | %12
 [!3!B,!2!D]2 [!3!B,!2!D] [!3!B,!2!D]2 [!3!B,!2!D] | [!3!A,!2!C]2 [!3!B,!2!D] [!2!C!1!E]2 !1!A | %14
 !1!G2 !1!E !1!F2 !1!G | !1!A2 !1!E !2!C2 !1!E | !2!D2 !2!C !2!D2 !2!B, | !3!A,2 x x2 :: x | %19
 !4!F,2 !3!A, !2!D2 !3!A, | !4!F,2 !3!A, !2!D2 !3!A, | !4!F,2 !3!A, !2!D2 !1!E | %22
 [!4!E,!3!A,]2 [!4!E,!3!A,] [!4!E,!3!A,]2 x | !4!F,2 !3!A, !2!D2 !3!A, | !4!F,2 !3!A, !2!D2 !1!E | %25
 !1!F2 !1!E !2!D2 !3!A, | !4!F,2 !3!A, !4!F,2 :: x | !1!E2 !1!F !1!=G2 !1!F | %29
 !1!E2 !2!D !1!E2 !1!F | !1!=G2 !1!F !1!G2 !1!F | !1!E2 !1!E !1!E2 x | !4!F,2 !3!A, !2!D2 !3!A, | %33
 !4!F,2 !3!A, !2!D2 !1!E | !1!F2 !1!E !2!D2 !3!A, | !4!F,2 !3!A, !4!F,2 :| %36
V:4
 x | !5!A,,6 | !5!A,,6 | !5!A,,6 | !5!A,,6 | !5!A,,3 !4!F,3 | x3 !4!E,3 | x6 | %8
 !4!E,2 !3!G, !4!E,2 :: x | !6!E,,6 | !5!A,,6 | !6!E,,6 | !5!A,,6 | !6!E,,6 | !5!A,,6 | %16
 !6!E,,3 !6!E,,3 | !5!A,,2 x x2 :: x | x6 | x6 | x6 | !5!C,2 !5!C, !5!C,2 x | x6 | x6 | x6 | x5 :: %27
 x | !3!A,2 !2!D !2!E2 !2!D | !3!A,2 !4!F, !3!A,2 !2!D | !2!E2 !2!D !2!E2 !2!D | %31
 !3!A,2 !3!A, !3!A,2 x | x6 | x6 | x6 | x5 :| %36
V:5
 c | c2 A B2 d | c2 A B2 d | c2 A f2 d | c2 B A2 c | c2 A"_" x2 c | B2 D"_" x2 B | %7
 A2 C D2 ^D | E2 B, E,2 :: z |"_" [Bd]2 [Bd] [Bd]2 [Bd] | [Ac]3 A2 c | G2 E F2 G | A2 E C2 A, | %14
 [Bd]2 [Bd] [Bd]2 [Bd] | [Ac]3 A2 c | G2 E F2 G | [EA]2 x x2 ::"_" A | d2 e f2 e | d2 e f2 e | %21
 d2 e f2 =g | [ce]2 [ce] [ce]2 x | d2 e f2 e | d2 e f2 =g | a2 =g f2 e | d2 f d2 :: a | %28
"_" a2 a a2 a | a2 a a2 a | a2 a a2 a | [ca]2 [ca] [ca]2 A | d2 e f2 e | d2 e f2 =g | a2 =g f2 e | %35
 d2 f d2 :| %36
V:6
 x | A,6 | A,6 | A,6 | A,6 | A,3 ^A,3 | B,2 D G,3 | A,2 C D2 ^D | E2 B, E,2 :: x | E6 | E3 z3 | %12
 x6 | x6 | E6 | E3 z3 | x6 | C2 z z2 :: x | D6 | D6 | D6 | A,2 A, A,2 z | D6 | D6 | A,3 A,3 | %26
 D3 D2 :: x | A,6 | A,6 | A,6 | A,3 A,3 | D6 | D6 | A,3 A,3 | D3 D2 :| %36
V:7
 !2!C | !2!C2 !3!A, !2!B,2 !2!D | !2!C2 !3!A, !2!B,2 !2!D | !2!C2 !3!A, !1!F2 !2!D | %4
 !2!C2 !2!B, !3!A,2 !2!C | !2!C2 !3!A, !6!x2 !2!C | !2!B,2 !4!D, x2 !2!B, | %7
 !3!A,2 !5!C, !4!D,2 !4!^D, | !4!E,2 !5!B,, x2 :: x | %10
 [!3!B,!2!D]2 [!3!B,!2!D] [!3!B,!2!D]2 [!3!B,!2!D] | [!3!A,!2!C]3 !3!A,2 !2!C | %12
 !3!G,2 !4!E, !4!F,2 !3!G, | !3!A,2 !4!E, !5!C,2 !5!A,, | %14
 [!3!B,!2!D]2 [!3!B,!2!D] [!3!B,!2!D]2 [!3!B,!2!D] | [!3!A,!2!C]3 !3!A,2 !2!C | %16
 !3!G,2 !4!E, !4!F,2 !3!G, | [!4!E,!3!A,]2 x x2 :: !3!A, | !2!D2 !1!E !1!F2 !1!E | %20
 !2!D2 !1!E !1!F2 !1!E | !2!D2 !1!E !1!F2 !1!=G | [!2!C!1!E]2 [!2!C!1!E] [!2!C!1!E]2 x | %23
 !2!D2 !1!E !1!F2 !1!E | !2!D2 !1!E !1!F2 !1!=G | !1!A2 !1!=G !1!F2 !1!E | !2!D2 !1!F !2!D2 :: %27
 !1!A | !1!A2 !1!A !1!A2 !1!A | !1!A2 !1!A !1!A2 !1!A | !1!A2 !1!A !1!A2 !1!A | %31
 [!2!C!1!A]2 [!2!C!1!A] [!2!C!1!A]2 !3!A, | !2!D2 !1!E !1!F2 !1!E | !2!D2 !1!E !1!F2 !1!=G | %34
 !1!A2 !1!=G !1!F2 !1!E | !2!D2 !1!F !2!D2 :| %36
V:8
 x | !5!A,,6 | !5!A,,6 | !5!A,,6 | !5!A,,6 | !5!A,,3 !5!^A,,3 | !5!B,,2 x !6!G,,3 | %7
 !5!A,,2 x x2 x | x2 x !6!E,,2 :: x | !4!E,6 | !4!E,3 x3 | x6 | x6 | !4!E,6 | !4!E,3 x3 | x6 | %17
 !5!C,2 x x2 :: x | !4!D,6 | !4!D,6 | !4!D,6 | !5!A,,2 !5!A,, !5!A,,2 x | !4!D,6 | !4!D,6 | %25
 !5!A,,3 !5!A,,3 | !4!D,3 !4!D,2 :: x | !5!A,,6 | !5!A,,6 | !5!A,,6 | !5!A,,3 !5!A,,3 | !4!D,6 | %33
 !4!D,6 | !5!A,,3 !5!A,,3 | !4!D,3 !4!D,2 :| %36

